docs/.gitbook/assets/icon-envelope-16@light.svg

<svg width="32" height="32" viewBox="0 0 16 16" fill="none" xmlns="http://www.w3.org/2000/svg">
<rect x="0" y="0" width="16" height="16" fill="#fff"/>
<path fill-rule="evenodd" clip-rule="evenodd" d="M1 4.75C1 3.23122 2.23122 2 3.75 2H12.25C13.7688 2 15 3.23122 15 4.75V11.25C15 12.7688 13.7688 14 12.25 14H3.75C2.23122 14 1 12.7688 1 11.25V4.75ZM2.63781 4.17887C2.54972 4.35006 2.5 4.54422 2.5 4.75V11.25C2.5 11.9404 3.05964 12.5 3.75 12.5H12.25C12.9404 12.5 13.5 11.9404 13.5 11.25V4.75C13.5 4.54422 13.4503 4.35006 13.3622 4.17887L9.89655 7.47947C8.83448 8.49097 7.16552 8.49097 6.10345 7.47947L2.63781 4.17887ZM4.1 3.5L7.13793 6.39327C7.62069 6.85304 8.37931 6.85304 8.86207 6.39327L11.9 3.5H4.1Z" fill="#000"/>
</svg>

<svg xmlns="http://www.w3.org/2000/svg" width="32" height="32" fill="none" viewBox="0 0 16 16"><path fill="#fff" d="M0 0h16v16H0z"/><path fill="#000" fill-rule="evenodd" d="M1 4.75A2.75 2.75 0 0 1 3.75 2h8.5A2.75 2.75 0 0 1 15 4.75v6.5A2.75 2.75 0 0 1 12.25 14h-8.5A2.75 2.75 0 0 1 1 11.25zm1.638-.571a1.25 1.25 0 0 0-.138.571v6.5c0 .69.56 1.25 1.25 1.25h8.5c.69 0 1.25-.56 1.25-1.25v-6.5c0-.206-.05-.4-.138-.571l-3.465 3.3a2.75 2.75 0 0 1-3.794 0zM4.1 3.5l3.038 2.893a1.25 1.25 0 0 0 1.724 0L11.9 3.5z" clip-rule="evenodd"/></svg>
